svg/24/crown.svg

<svg width="24" height="24" viewBox="0 0 24 24" fill="currentColor" xmlns="http://www.w3.org/2000/svg"><path fill-rule="evenodd" clip-rule="evenodd" d="M12.6168 3.3231C12.4767 3.12075 12.2462 3 12.0001 3C11.754 3 11.5236 3.12074 11.3835 3.32309L7.2615 9.27693L3.09933 7.08631C2.84807 6.95407 2.54367 6.97506 2.31293 7.14053C2.08219 7.30601 1.96469 7.5876 2.00936 7.868L3.65809 18.2165C3.8321 19.3087 4.77409 20.1125 5.88007 20.1125H18.1202C19.2262 20.1125 20.1682 19.3087 20.3422 18.2165L21.9908 7.868C22.0355 7.58759 21.918 7.30601 21.6872 7.14053C21.4565 6.97506 21.1521 6.95407 20.9008 7.08631L16.7386 9.27693L12.6168 3.3231ZM8.11666 10.6769L12.0001 5.06762L15.8834 10.6769C16.0992 10.9887 16.5138 11.0903 16.8493 10.9137L20.2738 9.11138L19.3357 15H4.66455L3.72638 9.11141L7.15071 10.9137C7.48625 11.0903 7.90082 10.9887 8.11666 10.6769ZM4.90353 16.5L5.13941 17.9805C5.19741 18.3446 5.51141 18.6125 5.88007 18.6125H18.1202C18.4888 18.6125 18.8028 18.3446 18.8608 17.9805L19.0967 16.5H4.90353Z"/></svg>

<svg xmlns="http://www.w3.org/2000/svg" width="24" height="24" fill="currentColor" viewBox="0 0 24 24">
  <path fill-rule="evenodd" d="M12.617 3.323a.75.75 0 0 0-1.234 0L7.262 9.277l-4.163-2.19a.75.75 0 0 0-1.09.781l1.65 10.348a2.25 2.25 0 0 0 2.221 1.896h12.24a2.25 2.25 0 0 0 2.222-1.895l1.649-10.349a.75.75 0 0 0-1.09-.782l-4.162 2.19-4.122-5.953Zm-4.5 7.354L12 5.067l3.883 5.61a.75.75 0 0 0 .966.237l3.425-1.803L19.336 15H4.665l-.939-5.889 3.425 1.803a.75.75 0 0 0 .966-.237ZM4.904 16.5l.235 1.48a.75.75 0 0 0 .741.633h12.24a.75.75 0 0 0 .74-.633l.237-1.48H4.904Z" clip-rule="evenodd"/>
</svg>
